dist/images/twitter-square.svg

<?xml version="1.0" encoding="UTF-8" standalone="no"?>
<svg width="30px" height="30px" viewBox="0 0 30 30" version="1.1" xmlns="http://www.w3.org/2000/svg" xmlns:xlink="http://www.w3.org/1999/xlink">
    <!-- Generator: Sketch 41.2 (35397) - http://www.bohemiancoding.com/sketch -->
    <title>twitter-square</title>
    <desc>Created with Sketch.</desc>
    <defs></defs>
    <g id="Pages" stroke="none" stroke-width="1" fill="none" fill-rule="evenodd">
        <g id="Homepage" transform="translate(-580.000000, -1717.000000)" fill="#FFFFFF">
            <g id="footer" transform="translate(0.000000, 1632.000000)">
                <g id="twitter-square" transform="translate(580.000000, 85.000000)">
                    <path d="M25,9.4140625 C24.2708333,9.73958333 23.4830729,9.9609375 22.6367188,10.078125 C23.5221354,9.55729167 24.1276042,8.79557292 24.453125,7.79296875 C23.6067708,8.28776042 22.734375,8.61979167 21.8359375,8.7890625 C21.0416667,7.9296875 20.0455729,7.5 18.8476562,7.5 C17.7148438,7.5 16.7480469,7.90039062 15.9472656,8.70117188 C15.1464844,9.50195312 14.7460938,10.46875 14.7460938,11.6015625 C14.7460938,11.9791667 14.7786458,12.2916667 14.84375,12.5390625 C13.1640625,12.4479167 11.5885417,12.0247396 10.1171875,11.2695312 C8.64583333,10.5143229 7.39583333,9.50520833 6.3671875,8.2421875 C5.98958333,8.89322917 5.80078125,9.58333333 5.80078125,10.3125 C5.80078125,11.796875 6.39322917,12.9361979 7.578125,13.7304688 C6.96614583,13.7174479 6.31510417,13.5481771 5.625,13.2226562 L5.625,13.2617188 C5.625,14.2382812 5.95052083,15.1074219 6.6015625,15.8691406 C7.25260417,16.6308594 8.05338542,17.1028646 9.00390625,17.2851562 C8.62630208,17.3893229 8.29427083,17.4414062 8.0078125,17.4414062 C7.83854167,17.4414062 7.58463542,17.4153646 7.24609375,17.3632812 C7.51953125,18.1835938 8.00455729,18.8606771 8.70117188,19.3945312 C9.39778646,19.9283854 10.1888021,20.2018229 11.0742188,20.2148438 C9.56380208,21.3867188 7.86458333,21.9726562 5.9765625,21.9726562 C5.63802083,21.9726562 5.3125,21.953125 5,21.9140625 C6.92708333,23.1380208 9.0234375,23.75 11.2890625,23.75 C12.7473958,23.75 14.1145833,23.5188802 15.390625,23.0566406 C16.6666667,22.594401 17.7604167,21.9759115 18.671875,21.2011719 C19.5833333,20.4264323 20.3678385,19.5345052 21.0253906,18.5253906 C21.6829427,17.516276 22.171224,16.4615885 22.4902344,15.3613281 C22.8092448,14.2610677 22.96875,13.1640625 22.96875,12.0703125 C22.96875,11.8359375 22.9622396,11.6601562 22.9492188,11.5429688 C23.7695312,10.9570312 24.453125,10.2473958 25,9.4140625 Z M30,5.625 L30,24.375 C30,25.9244792 29.4498698,27.249349 28.3496094,28.3496094 C27.249349,29.4498698 25.9244792,30 24.375,30 L5.625,30 C4.07552083,30 2.75065104,29.4498698 1.65039062,28.3496094 C0.550130208,27.249349 0,25.9244792 0,24.375 L0,5.625 C0,4.07552083 0.550130208,2.75065104 1.65039062,1.65039062 C2.75065104,0.550130208 4.07552083,0 5.625,0 L24.375,0 C25.9244792,0 27.249349,0.550130208 28.3496094,1.65039062 C29.4498698,2.75065104 30,4.07552083 30,5.625 Z" id="Shape"></path>
                </g>
            </g>
        </g>
    </g>
</svg>

<svg width="30" height="30" viewBox="0 0 30 30" xmlns="http://www.w3.org/2000/svg"><title>twitter-square</title><path d="M25 9.414a8.69 8.69 0 0 1-2.363.664c.885-.52 1.49-1.282 1.816-2.285a8.157 8.157 0 0 1-2.617.996c-.794-.86-1.79-1.289-2.988-1.289-1.133 0-2.1.4-2.9 1.201-.802.801-1.202 1.768-1.202 2.9 0 .378.033.69.098.938a11.612 11.612 0 0 1-4.727-1.27 11.627 11.627 0 0 1-3.75-3.027 4.062 4.062 0 0 0-.566 2.07c0 1.485.592 2.624 1.777 3.418-.612-.013-1.263-.182-1.953-.507v.039c0 .976.326 1.845.977 2.607.65.762 1.451 1.234 2.402 1.416a3.81 3.81 0 0 1-.996.156c-.17 0-.423-.026-.762-.078a4.17 4.17 0 0 0 1.455 2.032 3.897 3.897 0 0 0 2.373.82c-1.51 1.172-3.21 1.758-5.097 1.758-.339 0-.665-.02-.977-.059 1.927 1.224 4.023 1.836 6.29 1.836 1.457 0 2.825-.231 4.1-.693 1.277-.463 2.37-1.081 3.282-1.856a12.318 12.318 0 0 0 2.353-2.676 11.792 11.792 0 0 0 1.465-3.164c.32-1.1.479-2.197.479-3.29 0-.235-.007-.41-.02-.528A7.972 7.972 0 0 0 25 9.414zm5-3.789v18.75c0 1.55-.55 2.874-1.65 3.975-1.1 1.1-2.426 1.65-3.975 1.65H5.625c-1.55 0-2.874-.55-3.975-1.65C.55 27.25 0 25.924 0 24.375V5.625c0-1.55.55-2.874 1.65-3.975C2.75.55 4.076 0 5.625 0h18.75c1.55 0 2.874.55 3.975 1.65C29.45 2.75 30 4.076 30 5.625z" fill="#FFF" fill-rule="evenodd"/></svg>
